X:59
T:Mikaelidansen
R:Slängpolska
O:Småland
D: Björlert, Löfberg, Pekkari - Mikaelidansen
M:3/4
L:1/8
K:Am
e/2f/2e/2d/2 c/2B/2c/2B/2 AA/2c/2|B/2A/2B/2A/2 ^GA A3/2E/2|A3/2B/2 c/2B/2c/2d/2 ee/2^f/2|g/2^f/2g/2e/2 ^de e2:|
Aa aa/2^g/2 aa|^ff/2=g/2 f/2g/2f/2e/2 d2|de/2^f/2 g2 g2|
e3/2=f/2 ec AB|c/2B/2c/2d/2 ee/2d/2 c/2B/2c/2A/2|^GA A4:|
(:musicend:)

(:music:)
